X: 145
T: See My Desire
C: Teton Sioux band 1911-1914
N: Derived from sioux141.krn
O: South Dakota, U.S.A.
N: Teton Sioux Music by Frances Densmore, 1918
Z: transcribed to **kern format by Craig Sapp
L: 1/8
M: 3/4
Q: 1/4=58
K: Bb clef=bass
%%linebreak <none>
G> G G> G F3/ F/ | 
D> D D B, B,7// E// ||  
[M:2/4]D> DD2 | 
F> D D3/ D/ | 
C2B,3/ G,/ | 
G,2B,3/ C/ | 
B,> B, B, G,/ G,/ | 
B,2B,2 ||  
[M:3/4]G,> G, G,> G,G,2 :|]  



